svgs/sharp-light/grid.svg

<svg xmlns="http://www.w3.org/2000/svg" viewBox="0 0 448 512"><!--! Font Awesome Pro 6.6.0 by @fontawesome - https://fontawesome.com License - https://fontawesome.com/license (Commercial License) Copyright 2024 Fonticons, Inc. --><path d="M96 64l0 64-64 0 0-64 64 0zM32 32L0 32 0 64l0 64 0 32 32 0 64 0 32 0 0-32 0-64 0-32L96 32 32 32zM96 224l0 64-64 0 0-64 64 0zM32 192L0 192l0 32 0 64 0 32 32 0 64 0 32 0 0-32 0-64 0-32-32 0-64 0zm0 192l64 0 0 64-64 0 0-64zM0 352l0 32 0 64 0 32 32 0 64 0 32 0 0-32 0-64 0-32-32 0-64 0L0 352zM256 64l0 64-64 0 0-64 64 0zM192 32l-32 0 0 32 0 64 0 32 32 0 64 0 32 0 0-32 0-64 0-32-32 0-64 0zm0 192l64 0 0 64-64 0 0-64zm-32-32l0 32 0 64 0 32 32 0 64 0 32 0 0-32 0-64 0-32-32 0-64 0-32 0zm96 192l0 64-64 0 0-64 64 0zm-64-32l-32 0 0 32 0 64 0 32 32 0 64 0 32 0 0-32 0-64 0-32-32 0-64 0zM352 64l64 0 0 64-64 0 0-64zM320 32l0 32 0 64 0 32 32 0 64 0 32 0 0-32 0-64 0-32-32 0-64 0-32 0zm96 192l0 64-64 0 0-64 64 0zm-64-32l-32 0 0 32 0 64 0 32 32 0 64 0 32 0 0-32 0-64 0-32-32 0-64 0zm0 192l64 0 0 64-64 0 0-64zm-32-32l0 32 0 64 0 32 32 0 64 0 32 0 0-32 0-64 0-32-32 0-64 0-32 0z"/></svg>

<svg xmlns="http://www.w3.org/2000/svg" viewBox="0 0 448 512"><!--! Font Awesome Pro 6.4.0 by @fontawesome - https://fontawesome.com License - https://fontawesome.com/license (Commercial License) Copyright 2023 Fonticons, Inc. --><path d="M96 64v64H32V64H96zM32 32H0V64v64 32H32 96h32V128 64 32H96 32zM96 224v64H32V224H96zM32 192H0v32 64 32H32 96h32V288 224 192H96 32zm0 192H96v64H32V384zM0 352v32 64 32H32 96h32V448 384 352H96 32 0zM256 64v64H192V64h64zM192 32H160V64v64 32h32 64 32V128 64 32H256 192zm0 192h64v64H192V224zm-32-32v32 64 32h32 64 32V288 224 192H256 192 160zm96 192v64H192V384h64zm-64-32H160v32 64 32h32 64 32V448 384 352H256 192zM352 64h64v64H352V64zM320 32V64v64 32h32 64 32V128 64 32H416 352 320zm96 192v64H352V224h64zm-64-32H320v32 64 32h32 64 32V288 224 192H416 352zm0 192h64v64H352V384zm-32-32v32 64 32h32 64 32V448 384 352H416 352 320z"/></svg>
